!!!OTL: WER SAGT MIR WO WEINSBERG LIEGT
!!!ARE: Europa, Mitteleuropa, Deutschland
!!!SCT: B0150
!!!YEM: Copyright 1995, estate of Helmut Schaffrath.
**kern
*ICvox
*Ivox
*M2/4
*k[]
*C:
{16G
=1
8c
8c
8.c
16e
=2
8d
8G
8G
16r}
{16G
=3
8f
8e
8d
8c
=4
8c
8B
8c
16r}
{16G
=5
8c
8c
8.c
16e
=6
8d
8G
8G
16r}
{16G
=7
8f
8e
8d
8c
=8
8c
8B
8c
16r}
{16e
=9
8.d
16c
8B
8c
=10
8.d
16B
8G}
{16g
16B
=11
8c
8c
8c
8c
=12
16d
16f
16B
16d
8c
16r}
==
!!!AGN: Ballade, Romanze
!!!ONB: ESAC (Essen Associative Code) Database: BOEHME
!!!AMT: simple duple
!!!AIN: vox
!!!EED: Helmut Schaffrath
!!!EEV: 1.0
*-
